TO STAR :SIZE
REPEAT 5 [FORWARD :SIZE RIGHT 144]
END

TO PATTERN :DEPTH :SIZE
IF :DEPTH = 0 [STOP]
STAR :SIZE
FORWARD :SIZE
PATTERN :DEPTH - 1 :SIZE / 2
BACK :SIZE
RIGHT 72
PATTERN :DEPTH - 1 :SIZE / 2
LEFT 72
END

CLEARSCREEN
HOME
PENUP
BACK 100
PENDOWN
PATTERN 4 100