; Logo Test Program - Draw a Square with Colors
HOME
CLEAR
PENDOWN
SETCOLOR 2
REPEAT 4 [FORWARD 100 RIGHT 90]
PENUP
FORWARD 150
PENDOWN  
SETCOLOR 4
REPEAT 6 [FORWARD 80 RIGHT 60]
HOME
SETCOLOR 3
REPEAT 8 [FORWARD 50 RIGHT 45]